svg/mattermost.svg

<?xml version="1.0" encoding="UTF-8"?>
<!-- Uploaded to: SVG Repo, www.svgrepo.com, Generator: SVG Repo Mixer Tools -->
<svg width="800px" height="800px" viewBox="0 0 256 256" version="1.1" xmlns="http://www.w3.org/2000/svg" xmlns:xlink="http://www.w3.org/1999/xlink" preserveAspectRatio="xMidYMid">
    <g>
        <path d="M6.79123171,86.9648684 C25.2351716,32.4823178 76.783459,-1.43234143 131.421839,0.0464773399 L131.421839,0.0464773399 L113.909757,20.739032 C81.4957329,26.5997669 53.5072568,48.7337413 42.5072761,81.2287969 C26.140539,129.576353 53.572705,182.545803 103.779303,199.543648 C153.985902,216.538377 207.952658,191.12264 224.319395,142.7782 C235.283535,110.390667 226.589826,75.9306053 204.563374,51.5978814 L204.563374,51.5978814 L203.21701,24.4290666 C247.371203,56.4768925 267.622761,114.633895 249.208429,169.029181 C226.546194,235.970273 153.909545,271.865521 86.9684532,249.204844 C20.0273609,226.542609 -15.8694453,153.905961 6.79123171,86.9648684 Z M165.185344,11.9237762 C165.839826,11.6401671 166.594039,11.5793938 167.321762,11.8256038 C168.035459,12.0671391 168.585536,12.5580009 168.936152,13.1595015 L168.936152,13.1595015 L169.007833,13.2763734 L169.071723,13.4103864 C169.240019,13.7313945 169.383381,14.0991514 169.450388,14.5510559 C169.582343,15.4417519 169.641535,17.5358595 169.665634,19.6808502 L169.671365,20.2662434 C169.677102,20.9486534 169.679633,21.6256073 169.680171,22.2599793 L169.680173,22.7924325 C169.678741,24.5267431 169.663874,25.8268542 169.663874,25.8268542 L169.663874,25.8268542 L170.167202,44.7600977 L170.910507,66.6151379 L171.837691,104.59538 C171.837691,104.59538 171.83785,104.602367 171.838064,104.616156 L171.838772,104.677745 C171.838883,104.691349 171.838983,104.706608 171.839058,104.723498 L171.839105,104.844231 C171.832023,107.013302 171.387173,122.892918 160.122454,133.928662 C148.009853,145.795053 133.131285,144.708923 123.451177,141.433394 C113.771069,138.154749 101.293828,129.979951 98.8800345,113.195592 C96.8283098,98.9302108 104.41287,86.9390787 106.734401,83.6627102 L106.889339,83.4459953 C107.205256,83.0081712 107.389865,82.7777388 107.389865,82.7777388 L107.389865,82.7777388 L131.197445,53.1717559 L145.064682,36.2627333 L156.965355,21.5275276 C156.965355,21.5275276 158.715313,19.1834331 160.51647,16.874806 L160.876881,16.4142586 C161.477025,15.6498178 162.070275,14.9069442 162.593713,14.2737698 L162.898895,13.907734 C163.342593,13.3805415 163.71955,12.9564826 163.983901,12.6998055 C164.292443,12.4006135 164.608776,12.205827 164.918876,12.0546727 L164.918876,12.0546727 L165.146386,11.9393591 Z" fill="#0058CC">
</path>
    </g>
</svg>

<svg xmlns="http://www.w3.org/2000/svg" width="800" height="800" preserveAspectRatio="xMidYMid" viewBox="0 0 256 256"><path fill="#0058CC" d="M6.791 86.965C25.235 32.482 76.783-1.432 131.421.046L113.91 20.74C81.496 26.6 53.507 48.735 42.507 81.23c-16.366 48.347 11.066 101.317 61.272 118.315 50.207 16.994 104.174-8.421 120.54-56.766 10.965-32.387 2.27-66.847-19.756-91.18l-1.346-27.169c44.154 32.048 64.406 90.205 45.991 144.6-22.662 66.941-95.298 102.837-162.24 80.176-66.94-22.662-102.837-95.299-80.177-162.24Zm158.394-75.041a2.962 2.962 0 0 1 2.137-.098 2.968 2.968 0 0 1 1.614 1.334l.072.116.064.134c.168.321.311.69.378 1.141.132.89.192 2.985.216 5.13l.005.585c.006.683.009 1.36.01 1.994v.532c-.002 1.735-.017 3.035-.017 3.035l.503 18.933.744 21.855.927 37.98v.083l.001.045v.121c-.007 2.17-.452 18.049-11.717 29.085-12.112 11.866-26.99 10.78-36.67 7.504-9.68-3.278-22.158-11.453-24.572-28.237-2.052-14.266 5.533-26.257 7.854-29.533l.155-.217c.316-.438.5-.668.5-.668l23.808-29.606 13.868-16.91 11.9-14.734s1.75-2.345 3.551-4.653l.36-.46a111.17 111.17 0 0 1 1.718-2.141l.305-.366c.444-.527.82-.952 1.085-1.208.308-.3.625-.494.935-.645l.227-.116Z"/></svg>
